packages/clerk-js/src/ui/icons/userAdd.svg

<svg viewBox="0 0 10 10" fill="none" xmlns="http://www.w3.org/2000/svg">
<path d="M3.8002 4.40005C4.79431 4.40005 5.6002 3.59416 5.6002 2.60005C5.6002 1.60594 4.79431 0.800049 3.8002 0.800049C2.80608 0.800049 2.0002 1.60594 2.0002 2.60005C2.0002 3.59416 2.80608 4.40005 3.8002 4.40005Z" fill="currentColor"/>
<path d="M3.8002 5.60005C5.78842 5.60005 7.4002 7.21182 7.4002 9.20005H0.200195C0.200195 7.21182 1.81197 5.60005 3.8002 5.60005Z" fill="currentColor"/>
<path d="M8.6002 3.20005C8.6002 2.86868 8.33157 2.60005 8.0002 2.60005C7.66883 2.60005 7.4002 2.86868 7.4002 3.20005V3.80005H6.8002C6.46882 3.80005 6.2002 4.06868 6.2002 4.40005C6.2002 4.73142 6.46882 5.00005 6.8002 5.00005H7.4002V5.60005C7.4002 5.93142 7.66883 6.20005 8.0002 6.20005C8.33157 6.20005 8.6002 5.93142 8.6002 5.60005V5.00005H9.2002C9.53157 5.00005 9.8002 4.73142 9.8002 4.40005C9.8002 4.06868 9.53157 3.80005 9.2002 3.80005H8.6002V3.20005Z" fill="currentColor"/>
</svg>

<svg xmlns="http://www.w3.org/2000/svg" fill="none" viewBox="0 0 10 10"><path fill="currentColor" d="M3.8 4.4a1.8 1.8 0 1 0 0-3.6 1.8 1.8 0 0 0 0 3.6ZM3.8 5.6c2 0 3.6 1.6 3.6 3.6H.2c0-2 1.6-3.6 3.6-3.6ZM8.6 3.2a.6.6 0 0 0-1.2 0v.6h-.6a.6.6 0 1 0 0 1.2h.6v.6a.6.6 0 0 0 1.2 0V5h.6a.6.6 0 0 0 0-1.2h-.6v-.6Z"/></svg>
